X:6
T:Fiddler's Dream
C:Ward Allen
M:4/4
L:1/8
Z:abc by Bruce Osborne - bosborne@kos.net
K:G
A|BAGE DCB,A,|G,A,B,C DFGA|BGBd gfga|bgaf edef|
gabg afef|gage dBAF|GEDC B,DGA|BGA[G B] [G3 B3]:|
K:D
A/G/|FAAA A2 AA|A^cde fe[de][^c e]|[B2 e2] [Ae]d ^cAB^c|d2 ^cd BdA[G A]|
FAAA A2 AA|A^cde fe[de][^c e]|[B2 e2] [Ae]d ^cAB^c|d2 [Ae]^c d3:|
